context/brand-context/default/img/icons/compare.svg

<svg id="i-compare" viewBox="0 0 18 18" xmlns="http://www.w3.org/2000/svg"><path d="m12 3c3.3137085 0 6 2.6862915 6 6s-2.6862915 6-6 6c-1.0928452 0-2.11744941-.2921742-2.99996061-.8026704-.88181407.5102749-1.90678042.8026704-3.00003939.8026704-3.3137085 0-6-2.6862915-6-6s2.6862915-6 6-6c1.09325897 0 2.11822532.29239547 3.00096303.80325037.88158756-.51107621 1.90619177-.80325037 2.99903697-.80325037zm-6 1c-2.76142375 0-5 2.23857625-5 5 0 2.7614237 2.23857625 5 5 5 .74397391 0 1.44999672-.162488 2.08451611-.4539116-1.27652344-1.1000812-2.08451611-2.7287264-2.08451611-4.5460884s.80799267-3.44600721 2.08434391-4.5463015c-.63434719-.29121054-1.34037-.4536985-2.08434391-.4536985zm6 0c-.7439739 0-1.4499967.16248796-2.08451611.45391156 1.27652341 1.10008123 2.08451611 2.72872644 2.08451611 4.54608844s-.8079927 3.4460072-2.08434391 4.5463015c.63434721.2912105 1.34037001.4536985 2.08434391.4536985 2.7614237 0 5-2.2385763 5-5 0-2.76142375-2.2385763-5-5-5zm-1.4162763 7.0005324h-3.16744736c.15614659.3572676.35283837.6927622.58425872 1.0006671h1.99892988c.23142036-.3079049.42811216-.6433995.58425876-1.0006671zm.4162763-2.0005324h-4c0 .34288501.0345146.67770871.10025909 1.0011864h3.79948181c.0657445-.32347769.1002591-.65830139.1002591-1.0011864zm-.4158423-1.99953894h-3.16831543c-.13859957.31730812-.24521946.651783-.31578599.99935097h3.79988742c-.0705665-.34756797-.1771864-.68204285-.315786-.99935097zm-1.58295822-1.999926-.08316107.06199199c-.34550042.27081213-.65446126.58611297-.91825862.93727862h2.00044041c-.28418626-.37830727-.6207872-.71499149-.99902072-.99927061z" fill="currentColor" fill-rule="evenodd"/></svg>

<svg id="i-compare" viewBox="0 0 18 18" xmlns="http://www.w3.org/2000/svg"><path d="M12 3a6 6 0 1 1-3 11.197A6 6 0 1 1 9 3.803a5.961 5.961 0 0 1 3-.803zM6 4a5 5 0 1 0 2.085 9.546C6.808 12.446 6 10.817 6 9s.808-3.446 2.084-4.546A4.983 4.983 0 0 0 6 4zm6 0c-.744 0-1.45.162-2.085.454C11.192 5.554 12 7.183 12 9s-.808 3.446-2.084 4.546A5 5 0 1 0 12 4zm-1.416 7H7.416c.156.358.353.693.585 1.001h1.998c.232-.308.429-.643.585-1zM11 9H7c0 .343.035.678.1 1.001h3.8c.065-.323.1-.658.1-1.001zm-.416-2H7.416A4.962 4.962 0 0 0 7.1 8h3.8a4.962 4.962 0 0 0-.316-1zM9.001 5l-.083.063A5.03 5.03 0 0 0 8 6h2a5.03 5.03 0 0 0-.999-1z" fill="currentColor" fill-rule="evenodd"/></svg>
